dist/img/icon-close.svg

<svg width="40" height="40" viewBox="0 0 40 40" fill="none" xmlns="http://www.w3.org/2000/svg">
<path fill-rule="evenodd" clip-rule="evenodd" d="M25.293 13.2928L26.7072 14.7071L21.4151 20L26.7072 25.2928L25.293 26.7071L20.0001 21.415L14.7072 26.7071L13.293 25.2928L18.5851 20L13.293 14.7071L14.7072 13.2928L20.0001 18.585L25.293 13.2928Z" fill="#A1A1A1"/>
</svg>

<svg width="40" height="40" fill="none" xmlns="http://www.w3.org/2000/svg"><path fill-rule="evenodd" clip-rule="evenodd" d="M25.293 13.293l1.414 1.414L21.415 20l5.292 5.293-1.414 1.414L20 21.415l-5.293 5.292-1.414-1.414L18.585 20l-5.292-5.293 1.414-1.414L20 18.585l5.293-5.292z" fill="#A1A1A1"/></svg>
